X:1
T:Wohlauf, wohlauf, Jung und Alt
T:Wohlauf, wohlauf, Jung und Alt
T:Ludwig Senfl
C:Ludwig Senfl
%%score [ 1 2 3 4 ]
L:1/8
Q:1/4=120
M:3/2
K:A
V:1 treble nm="Soprano" snm="S"
V:2 treble nm="Alto" snm="A"
V:3 treble-8 nm="Tenor" snm="T"
V:4 bass nm="Bass" snm="B"
V:1
 A4 A4 A4 | G6 A2 B4 | E4 A8 |[M:2/2] G3 A B2 c2- | c2 B2 c2 c2 | B4 z4 | z2 B3 A A2- | %7
w: Wohl- auf, Wohl-|auf, * *|Wohl- auf,|Jung * * *|* * * und|Alt,|daß * sein|
 A2 G2 A2 B2 | c2 B2 A2 B2- | BA A4 G2 | A4 z2 e2 | e2 e2 c2 c2 | A2 A2 c4 | z2 F2 B2 BA | %14
w: * * Gott *|heut' * sel- *|* * * ber|walt'! Der|Tag her dringt, der|Vo- gel singt|daß's al- lent- *|
 GF G2 E4 | z2 A2 B2 B2 | G2 c4 B2- | BA A4 G2 | A8- | A8 | z8 | z8 | z8 | z8 | z2 A2 B2 B2 | %25
w: hal- * * ben,|daß's al- lent-|halb', im Wald|* * * er-|klingt.||||||zu- we- gen|
[M:3/2] c6 B2 A4 | G6 A2 B4 | E4 A8 |[M:2/2] G3 A B2 c2- | c2 B2 c2 c2 | B4 z4 | z2 B3 A A2- | %32
w: brächt'! * Wohl-|auf, * *|Wohl- auf,|Wohl- * * auf,|* Jung * und|Alt,|resch * und|
 A2 G2 A2 B2 | c2 B2 A2 B2- | BA A4 G2 |[M:6/4] A12 | z12 |[M:2/2] z2 c2 B2 e2 | e2 ^d2 e4 | z8 | %40
w: * bald, * daß|sein Gott heut sel-|* * * ber|walt'!||Her- nach laß|fah- * ren||
 z4 z2 A2 | A2 A2 B4 | c4 e4 | z2 e2 c4 | A4 z2 e2- | e2 c4 A2- | AB c2 dcBA | G2 A4 G2 | %48
w: laß|fah- ren ins|Ga- ren!,|Wuff, Wuff,|Wuff, Wuff,|* Wuff, Wuff,||* * Wuff,|
 A2 e2 e2 e2 | c2 c2 A4 | z2 A2 B2 B2 | c8 | z2 c2 c2 A2 | B2 c2 d2 d2 | c8 || %55
w: Wuff, her- nach, ihr|lie- ben Hund',|her- nach, her-|nach,|her- nach, her-|nach, ihr lie- ben|Hund',|
[M:3/2]"^Secunda pars" c8 c4 | c8 c4 | c4 c4 c4 |[M:2/2] c8- | c4 z4 | e4 c2 c2 | e2 e2 e3 d | c8 | %63
w: Wuff, Wuff,|Wuff, Wuff,|Wuff, Wuff, Wuff,|Wuff,||Do lauft der|e- del Hirsch do-|her,|
 z8 | z8 |[M:3/2] c8 c4 | c8 c4 | c4 c4 c4 |[M:2/2] c4 z2 e2- | ed c3 B A2- | A2 G2 A2 F2- | %71
w: ||Wuff, Wuff,|Wuff, Wuff,|Wuff, Wuff, Wuff,|Wuff, du|* * hast * *|* noch recht, gue-|
 F2 E2 F4 | z2 F2 E3 F | G2 A2 F4 | E8- | E8 | z8 | z8 | z2 E2 E2 E2 | F2 G2 A2 A2 | G2 FE e4 | %81
w: * ter G'sell,|du hast *|* * noch|recht,||||do- her, do-|her, do- her, do-|her, * * *|
 z2 e4 c2- | c2 A4 e2- | e2 c4 A2- | AB c2 dcBA | G2 A4 G2 |[M:3/2] A8 z4 | G8 G4 | G8 G4 | A8 A4 | %90
w: Wuff, Wuff,|* Wuff, Wuff,|* Wuff, Wuff,|* * * Wuff, * * *||Wuff,|kumbt her-|für, mit|gro- ßem|
[M:2/2] G4 z2 G2 | B3 A G2 F2 | E3 F GA B2- | BA A4 G2 | A6 F2- | F2 E2 D2 CB, | C8 || %97
w: Schall, ihr|lie- * * ben|Hund' * * * *||all! lie-|* ben Hund' * *|all!|
[M:3/2]"^Tertia pars" c8 c4 | c8 c4 | c4 c4 c4 |[M:2/2] c8 | z4 A4 | e4 e4 | c2 c2 c4 | A4 A4 | %105
w: Wuff, Wuff,|Wuff, Wuff,|Wuff, Wuff, Wuff,|Wuff,|Do|lauft der|e- del Hirsch|do- her,|
 e6 e2 | e4 z2 E2 | G3 A B2 E2 | G3 A B2 c2 | B3 A GF B2- | BA A4 G2 |[M:3/2] A8 z4 | c4 c4 c4 | %113
w: trau- ter|Hund. trau-|ter * Hund. Do|lauft * der e-|del * * * Hirsch|* * * do-|her,|Nun kumbt her-|
 B8 B4 | A8 A4 | G8 z4 | e4 e4 e4 | c8 B4 | A8 F4 |[M:2/2] G4 z2 c2 | c2 c2 B2 B2 | A2 A2 G4 | %122
w: zue, ihr|G'sel- len|all,|Nun kumbt her-|zue, ihr|G'sel- len|all, und|grei- fet zu mit|rei- chem Schall.|
 z2 B2 e3 d | c2 B2 A2 F2 | G2 B3 AGF | E2 B2 c2 B2- | BA A4 G2 | A8 |] %128
w: mit rei- *|* chem Schall. *|mit rei- * * *||* * * chem|Schall.|
V:2
 E4 E4 E4 | E8 E4 | E8 E4 |[M:2/2] E2 E4 E2 | E4 z4 | E4 E4 | E4 x4 | E4 E4 | E4 E4 | E4 E4 | C8- | %11
w: Wohl- auf, Wohl-|auf, Wohl-|auf, Wohl-|auf, Jung und|Alt,|resch und|bald|daß sein|Gott heut'|sel- ber|walt'!|
 C8 | z2 A2 A2 A2 | F2 F2 D2 D2 | E4 z2 E2 | F2 F2 ^D2 D2 | E3 D CB, D2 | A,4 B,4 | A,8- | A,8 | %20
w: |Der Tag her|dringt, der Vo- gel|singt daß's|al- lent- halb', im|Wald * * * *|er- *|klingt.||
 z8 | z8 | z8 | z8 | z8 |[M:3/2] E4 E4 E4 | E8 E4 | E8 E4 |[M:2/2] E2 E4 E2 | E4 z4 | E4 E4 | %31
w: |||||Wohl- auf, Wohl-|auf, Wohl-|auf, Wohl-|auf, Jung und|Alt,|resch und|
 E4 z4 | E4 E4 | E4 E4 | E4 E4 |[M:6/4] C6 z6 | z12 |[M:2/2] z2 A2 G2 A2 | F4 E4 | z8 | z4 z2 E2 | %41
w: bald,|daß sein|Gott heut|sel- ber|walt'!||Her- nach laß|fah- ren||laß|
 E2 F2 D2 B,2 | E4 C4 | z2 A,2 E4 | C4 E2 C2- | C2 A,4 C2- | CD E4 D2 | E4 z2 E2 | E2 E2 C2 C2 | %49
w: fah- * ren ins|Ga- ren!,|Wuff, Wuff,|Wuff, Wuff, Wuff,|* Wuff, Wuff,|* * * Wuff,|Wuff, her-|nach, ihr lie- ben|
 A,4 z2 E2 | F2 A2 A2 G2 | A4 z2 E2 | F2 E2 E4 | z2 A2 A2 G2 | A8 ||[M:3/2] E8 E4 | E8 E4 | %57
w: Hund', her-|nach, ihr lie- ben|Hund', her-|nach, her- nach,|ihr lie- ben|Hund',|Wuff, Wuff,|Wuff, Wuff,|
 E4 E4 E4 |[M:2/2] E8 | E4 C2 C2 | E2 E2 E3 D | C8 | z2 C2 C2 C2 | A,3 B, CD E2- | ED C4 B,2 | %65
w: Wuff, Wuff, Wuff,|Wuff,|Do lauft der|e- del Hirsch do-|her,|Do lauft der|e- * * * *|* del Hirsch do-|
[M:3/2] C8 z4 | E8 E4 | E4 E4 E4 |[M:2/2] E8 | z4 A,4 | E2 E2 C4 | C2 C2 C4 | z2 C2 C2 E2- | %73
w: her,|Wuff, Wuff,|Wuff, Wuff, Wuff,|Wuff,|du|hast noch recht,|gue- ter G'sell,|du hast noch|
 ED C4 B,2 | C8 | z2 E4 C2 | E4 C2 E2- | ED C4 B,2 | C8 | z8 | z4 A,4 | z4 A,4 | z2 E4 C2- | %83
w: |recht,|do- her,|do- her, do-||her,||wuff,|wuff,|wuff, wuff,|
 C2 A,3 B, C2- | CD E4 ^D2 | E8 |[M:3/2] C8 z4 | E8 E4 | E8 E4 | E8 E4 |[M:2/2] E2 E4 DC | %91
w: * wuff, * wuff,||wuff,|wuff,|kumbt her-|für, mit|gro- ßem|Schall, kumbt * *|
 B,4 B,4 | E4 z2 B,2 | C2 D2 E2 z2 | C3 D E2 D2- | D2 E2 F4 | E8 ||[M:3/2] E8 E4 | E8 E4 | %99
w: * her-|für, ihr|lie- ben Hund'|ihr * * lie-|* ben Hund'|all!|Wuff, Wuff,|Wuff, Wuff,|
 E4 E4 E4 |[M:2/2] E4 z2 A,2 | E4 E4 | C2 C2 C4 | A,4 A,4 | E6 E2 | E4 z2 C2- | C2 B,A, C2 C2 | %107
w: Wuff, Wuff, Wuff,|Wuff, Do|lauft der|e- del Hirsch|||||
 B,6 E2 | E4 E4 | E6 D2 | E2 F2 E4 |[M:3/2] C8 z4 | E4 E4 E4 | B,8 E4 | C8 ^D4 | E8 z4 | E4 E4 E4 | %117
w: * Do|lauft der|e- del|Hirsch * do-|her,|Nun kumbt her-|zue, ihr|G'sel- len|all,|Nun kumbt her-|
 E8 E4 | F4 C4 ^D4 |[M:2/2] E4 z2 E2 | E2 E2 B,2 E2 | C2 ^D2 E4 | z2 E2 E2 E2 | E2 E2 F2 D2 | E8- | %125
w: zue, ihr|G'sel- * len|all, und|grei- fet zu mit|rei- chem Schall.|nun grei- fet|zu mit rei- *|chem|
 E8- | E8 | C8 |] %128
w: ||Schall.|
V:3
 A4 A4 A4 | B8 B4 | c8 A4 |[M:2/2] B4 z4 | z4 z2 A2 | B3 A B2 c2- | c2 B2 c2 A2 | B4 z2 e2 | %8
w: Wohl- auf, Wohl-|auf, Wohl-|auf, Wohl-|auf,|Wohl-|auf, * * resch|* * * und|bald daß|
 c2 e3 d B2 | c2 A2 B4 | A8 | z2 e2 e2 e2 | c2 c2 A2 A2 | d4 z2 B2 | e2 ed cB c2 | A4 z4 | z8 | %17
w: sein Gott * heut'|sel- * *|walt'!|Der Tag her|dringt, der Vo- gel|singt daß's|all's er- * * * *|klingt.||
 z8 | z4 z2 e2 | e2 ee c2 c2 | A2 A2 d4 | z2 B2 e3 d | c2 A2 B3 A | GFEF GA B2- | BA A4 G2 | %25
w: |Ihr|Rit- ter und Knecht', merkt|e- ben recht,|ob ich ein'n|Hirsch zu- we- *||* * * gen|
[M:3/2] A8 z4 | B4 B4 B4 | c8 A4 |[M:2/2] B4 z4 | z4 z2 A2 | B3 A B2 c2- | c2 B2 c2 A2 | B4 z2 e2 | %33
w: brächt'!|Wohl- auf, Wohl-|auf, Wohl-|auf,|Wohl-|auf, * * resch|* * * und|bald, daß|
 c2 e3 d B2 | c2 A2 B2 B2 |[M:6/4] A4 E2 F4 F2 | E4 A2 G3 F G2 |[M:2/2] A4 z4 | z2 B2 e3 d | %39
w: sein Gott * *|* heut sel- ber|walt'! Wohl- auf, guet|G'sell, was hör' * ich|do?|Mich dunkt, *|
 c2 B2 A2 G2 | F2 E2 B2 c2- | cB A4 G2 | A4 z4 | e4 z4 | e4 c4 | A4 e4 | c4 A4 | B8 | A4 z2 e2 | %49
w: * es sei *|* ein Hirsch *|* * * gar|noh'.|Wuff,|Wuff, Wuff,|Wuff, Wuff,|Wuff, Wuff,|Wuff,|Wuff, her-|
 e2 e2 c2 c2 | A4 z2 e2 | e2 e2 c2 c2 | A2 c2 c2 c2 | B2 e2 e2 d2 | e8 ||[M:3/2] A8 A4 | A8 A4 | %57
w: nach, ihr lie- ben|Hund', her-|nach, ihr lie- ben|Hund', her- nach, her-|nach, ihr lie- ben|Hund',|Wuff, Wuff,|Wuff, Wuff,|
 A4 A4 A4 |[M:2/2] A8 | A4 z2 A2 | A4 z4 | A4 z2 A2 | E2 A2- ABcd | e4 z2 E2 | G2 A2 F2 F2 | %65
w: Wuff, Wuff, Wuff,|Do|lauft Do|lauft|der e-|del Hirsch * * * *|* der|e- del Hirsch do-|
[M:3/2] G8 z4 | A8 A4 | A4 A4 A4 |[M:2/2] A4 z2 A2 | e4 c2 A2 | B3 A F2 A2 | G4 F4 | z2 F2 G2 A2 | %73
w: her,|Wuff, Wuff,|Wuff, Wuff, Wuff,|Wuff, du|hast noch recht,|gue- * * *|ter G'sell,|du hast noch|
 B2 A2 A2 F2 | G8- | G8- | G8 | z4 z2 F2 | G2 c3 BAG | FE e4 ^d2 | e4 z4 | e4 z4 | e4 c4 | A4 e4 | %84
w: recht, gue- ter *|G'sell,|||do-|her, do- * * *||her,|wuff,|wuff, wuff,|wuff, wuff,|
 c4 A4 | B8 |[M:3/2] A8 z4 | B8 B4 | B8 B4 | c8 c4 |[M:2/2] B8 | z2 e4 d2 | c2 e4 d2 | c2 A2 B4 | %94
w: wuff, wuff,|wuff,|wuff,|kumbt her-|für, mit|gro- ßem|Schall,|kumbt her-|für, ihr lie-|ben Hund' *|
 A8- | A8- | A8 ||[M:3/2] A8 A4 | A8 A4 | A4 A4 A4 |[M:2/2] A8- | A8 | z4 A4 | e4 e4 | c2 c2 c4 | %105
w: all!|||Wuff, Wuff,|Wuff, Wuff,|Wuff, Wuff, Wuff,|Wuff,||Do|lauft der|e- del Hirsch|
 A4 A4 | e6 e2 | e4 z4 | z2 B2 B2 A2 | GFGA B2 B2 | c2 d2 B4 |[M:3/2] A8 z4 | A4 A4 A4 | G8 G4 | %114
w: do- her,|trau- ter|Hund.|Do lauft der|e- * * * * del|Hirsch * do-|her,|Nun kumbt her-|zue, ihr|
 A8 A4 | B8 z4 | B4 B4 G4 | A8 B4 | c4 A8 |[M:2/2] B4 z2 A2 | A2 A2 G2 G2 | A2 A2 B4 | %122
w: G'sel- len|all,|Nun kumbt her-|zue, ihr|G'sel- len|all, und|grei- fet zu mit|rei- chem Schall.|
 z2 B2 B2 G2 | A2 B2 c2 A2 | B4 G2 B2- | BAGF E2 e2 | c2 BA B2 B2 | A8 |] %128
w: nun grei- fet|zu mit rei- chem|Schall. mit rei-||* * * * chem|Schall.|
V:4
 A,,4 A,,4 A,,4 | E,6 F,2 G,4 | A,8 A,4 |[M:2/2] E,3 F, G,2 A,2- | A,2 G,2 A,2 A,2 | %5
w: Wohl- auf, Wohl-|auf, * Wohl-|auf, Wohl-|auf, * * Jung|* * * und|
 E,3 F, G,2 A,2- | A,2 G,2 A,2 A,2 | E,4 A,2 G,2 | A,2 E,2 A,2 G,2 | A,4 E,4 | A,,8- | A,,8- | %12
w: Alt, * * resch|* * * und|bald daß sein|Gott heut' sel- *|* ber|walt'!||
 A,,8 | z8 | z4 z2 A,2 | A,2 F,2 B,4 | E,2 A,4 G,2 | F,2 F,2 E,4 | A,,8 | z2 A,2 A,2 A,A, | %20
w: ||daß's|al- lent- halb',|im Wald *|* er- klin-|get.|Ihr Rit- ter und|
 F,2 F,2 D,2 D,2 | E,4 z2 E,2 | F,2 F,2 D,2 E,2- | E,D, C,2 B,,2 E,2 | D,2 C,2 B,,4 | %25
w: Knecht', merkt e- ben|recht, ob|ich ein'n Hirsch *|* * * * zu-|we- * gen|
[M:3/2] A,,8 A,,4 | E,6 F,2 G,4 | A,8 A,4 |[M:2/2] E,3 F, G,2 A,2- | A,2 G,2 A,2 A,2 | %30
w: brächt'! Wohl-|auf, * Wohl-|auf, Wohl-|auf, * * Jung|* * * und|
 E,3 F, G,2 A,2- | A,2 G,2 A,2 A,2 | E,4 A,2 G,2 | A,2 E,2 A,2 G,2 | A,4 E,4 | %35
w: Alt, * * resch|* * * und|bald, daß sein|Gott heut sel- *|* ber|
[M:6/4] A,,4 A,,2 D,4 D,2 | C,4 A,,2 B,,4 B,,2 |[M:2/2] A,,4 z4 | z4 z2 E,2 | A,3 G, F,2 E,2 | %40
w: walt'! Wohl- auf, guet|G'sell, was hör' ich|do?|Mich|dunkt, * * es|
 D,2 C,2 B,,2 A,,2 | C,2 D,2 B,,4 | A,,4 z4 | A,,4 z4 | A,4 z4 | A,,4 z4 | A,4 F,4 | E,8 | A,,8 | %49
w: sei * * ein|Hirsch * gar|noh'.|Wuff,|Wuff,|Wuff,|Wuff, Wuff,|Wuff,|Wuff,|
 z2 A,2 A,2 A,2 | F,2 F,2 E,4 | z2 A,2 A,2 A,2 | F,2 A,2 A,2 A,2 | F,2 A,2 B,2 B,2 | A,8 || %55
w: her- nach, ihr|lie- ben Hund',|her- nach, her-|nach, her- nach, her-|nach, ihr lie- ben|Hund',|
[M:3/2] A,,8 A,,4 | A,,8 A,,4 | A,,4 A,,4 A,,4 |[M:2/2] A,,8 | z4 A,,4 | z2 A,,2 A,,4 | z4 A,,4- | %62
w: Wuff, Wuff,|Wuff, Wuff,|Wuff, Wuff, Wuff,|Wuff,|Wuff,|Do lauft|der|
 A,,4 z2 A,,2 | A,,B,,C,D, E,2 C,2 | E,2 F,2 D,4 |[M:3/2] C,8 z4 | A,,8 A,,4 | A,,4 A,,4 A,,4 | %68
w: * der|e- * * * * del|Hirsch * do-|her,|Wuff, Wuff,|Wuff, Wuff, Wuff,|
[M:2/2] A,,8- | A,,4 A,4 | E,4 F,4 | C,4 z2 A,2 | E,2 F,2 C,2 A,2 | E,2 F,2 D,4 | C,8- | C,4 E,4 | %76
w: Wuff,|* du|hast noch|recht, du|hast noch recht, du|gue- * ter|G'sell,|* do-|
 C,2 E,4 C,2 | E,3 F, D,4 | C,4 A,,2 A,2- | A,2 G,2 F,4 | E,4 z4 | A,,4 z4 | A,4 z4 | A,,4 z4 | %84
w: her, do- her,|du * hast|noch recht, gue-|* * ter|G'sell,|wuff,|wuff,|wuff,|
 A,4 F,4 | E,8 |[M:3/2] A,,8 z4 | E,8 E,4 | E,8 E,4 | A,,8 A,,4 |[M:2/2] E,8- | E,4 z4 | %92
w: wuff, wuff,|wuff,|wuff,|kumbt her-|für, mit|gro- ßem|Schall,||
 z2 E,3 F, G,2 | A,2 F,2 E,2 z2 | A,,3 B,, C,2 D,2- | D,2 C,2 D,4 | A,,8 ||[M:3/2] A,,8 A,,4 | %98
w: ihr * *|lie- ben Hund'|ihr * * lie-|* ben Hund'|all!|Wuff, Wuff,|
 A,,8 A,,4 | A,,4 A,,4 A,,4 |[M:2/2] A,,8- | A,,8- | A,,8 | z4 A,4 | A,4 A,4 | A,2 A,2 A,4 | %106
w: Wuff, Wuff,|Wuff, Wuff, Wuff,|Wuff,|||Do|lauft der|e- del Hirsch|
 A,4 A,4 | E,6 E,2 | E,4 z4 | z2 E,3 F, G,2 | A,2 D,2 E,4 |[M:3/2] A,,8 z4 | A,,4 A,,4 A,,4 | %113
w: do- her,|trau- ter|Hund.|do- * *||her,|Nun kumbt her-|
 E,8 E,4 | F,8 F,4 | E,8 z4 | E,4 E,4 E,4 | A,8 G,4 | F,8 F,4 |[M:2/2] E,4 z2 A,,2 | %120
w: zue, ihr|G'sel- len|all,|Nun kumbt her-|zue, ihr|G'sel- len|all, und|
 A,,2 A,,2 E,2 E,2 | F,2 F,2 E,4 | z2 E,2 E,2 E,2 | A,2 G,2 F,2 F,2 | E,8- | E,8 | E,8 | A,,8 |] %128
w: grei- fet zu mit|rei- chem Schall.|nun grei- fet|zu mit rei- chem|rei-||chem|Schall.|

